dist/icons/svgs/chevron-left-solid.svg

<svg xmlns="http://www.w3.org/2000/svg" width="24" height="24" fill="currentcolor" class="icon-chevron-left-solid" viewBox="0 0 24 24">
  <path d="M6.60156 11.1406L14.1016 3.64062C14.5703 3.13281 15.3906 3.13281 15.8594 3.64062C16.3672 4.10938 16.3672 4.92969 15.8594 5.39844L9.25781 12L15.8594 18.6406C16.3672 19.1094 16.3672 19.9297 15.8594 20.3984C15.3906 20.9062 14.5703 20.9062 14.1016 20.3984L6.60156 12.8984C6.09375 12.4297 6.09375 11.6094 6.60156 11.1406Z"/>
</svg>

<svg xmlns="http://www.w3.org/2000/svg" width="24" height="24" fill="currentColor" class="icon-chevron-left-solid" viewBox="0 0 24 24">
  <path d="m6.602 11.14 7.5-7.5a1.205 1.205 0 0 1 1.757 0c.508.47.508 1.29 0 1.758L9.258 12l6.601 6.64c.508.47.508 1.29 0 1.758a1.205 1.205 0 0 1-1.757 0l-7.5-7.5a1.205 1.205 0 0 1 0-1.757"/>
</svg>
